X:2022
T:Boys of the Town
R:Jig
Z:From O'Neill's
M:6/8
L:1/8
K:G
D|~G3 GBd|edB dBG|~G3 GBd|edB AFD|
~G3 GBd|edB ~g3|edB AGA|BGG G2:|
B|:def ~g3|afd edB|def ~g3|afd e2d|
|1 def gfg|afd efg|edB AGA|BGG ~G3:|
|2 def gbb|faa efg|edB AGA|BGG G2||
% C:\aaa\ABC collections\ceili House Band Tunes.abc


